resources/svg/home-3-fill.svg

<svg fill="currentColor" viewBox="0 0 24 24" xmlns="http://www.w3.org/2000/svg"><path d="M20 20.0001C20 20.5524 19.5523 21.0001 19 21.0001H5C4.44772 21.0001 4 20.5524 4 20.0001V11.0001L1 11.0001L11.3273 1.61162C11.7087 1.26488 12.2913 1.26488 12.6727 1.61162L23 11.0001L20 11.0001V20.0001ZM8 15.0001V17.0001H16V15.0001H8Z"/></svg>

<svg xmlns="http://www.w3.org/2000/svg" viewBox="0 0 24 24" fill="currentColor">
    <g>
        <path fill="none" d="M0 0h24v24H0z"/>
        <path d="M20 20a1 1 0 0 1-1 1H5a1 1 0 0 1-1-1v-9H1l10.327-9.388a1 1 0 0 1 1.346 0L23 11h-3v9zM8 15v2h8v-2H8z"/>
    </g>
</svg>
